build/svg/cmd/32/numberformatscientific.svg

<?xml version="1.0" encoding="UTF-8" standalone="no"?>
<svg
   xmlns:dc="http://purl.org/dc/elements/1.1/"
   xmlns:cc="http://creativecommons.org/ns#"
   xmlns:rdf="http://www.w3.org/1999/02/22-rdf-syntax-ns#"
   xmlns:svg="http://www.w3.org/2000/svg"
   xmlns="http://www.w3.org/2000/svg"
   xmlns:sodipodi="http://sodipodi.sourceforge.net/DTD/sodipodi-0.dtd"
   xmlns:inkscape="http://www.inkscape.org/namespaces/inkscape"
   viewBox="0 0 32 32"
   version="1.1"
   id="svg6"
   sodipodi:docname="numberformatscientific.svg"
   inkscape:export-filename="/home/jupiter007/Libreoffice yaru theme fullcolor/build/cmd/32/numberformatscientific.png"
   inkscape:export-xdpi="95"
   inkscape:export-ydpi="95"
   inkscape:version="0.92.5 (2060ec1f9f, 2020-04-08)">
  <metadata
     id="metadata12">
    <rdf:RDF>
      <cc:Work
         rdf:about="">
        <dc:format>image/svg+xml</dc:format>
        <dc:type
           rdf:resource="http://purl.org/dc/dcmitype/StillImage" />
      </cc:Work>
    </rdf:RDF>
  </metadata>
  <defs
     id="defs10" />
  <sodipodi:namedview
     pagecolor="#ffffff"
     bordercolor="#666666"
     borderopacity="1"
     objecttolerance="10"
     gridtolerance="10"
     guidetolerance="10"
     inkscape:pageopacity="0"
     inkscape:pageshadow="2"
     inkscape:window-width="1920"
     inkscape:window-height="1011"
     id="namedview8"
     showgrid="true"
     inkscape:zoom="20.85965"
     inkscape:cx="3.5890662"
     inkscape:cy="19.002039"
     inkscape:window-x="0"
     inkscape:window-y="32"
     inkscape:window-maximized="1"
     inkscape:current-layer="svg6">
    <inkscape:grid
       type="xygrid"
       id="grid830" />
  </sodipodi:namedview>
  <path
     sodipodi:nodetypes="cccscsccccccccscscccccc"
     inkscape:connector-curvature="0"
     id="path4237-1"
     d="M 6.994169,2.999434 C 5.735968,3.014554 4.815279,2.969194 4.062529,3.38419 3.686164,3.591686 3.389297,3.943598 3.224638,4.38225 3.059964,4.820902 3.000021,5.341834 3.000021,5.999434 V 7.4877 26.000566 c 0,0.6576 0.05991,1.17857 0.224617,1.617185 0.164674,0.438614 0.46153,0.788522 0.837891,0.996094 0.75272,0.415106 1.673541,0.371528 2.93164,0.386721 h 0.002 18.005862 0.0038 c 1.25819,-0.01512 2.17889,0.03024 2.93164,-0.384793 0.376365,-0.207496 0.673221,-0.55937 0.837891,-0.998022 0.164523,-0.43869 0.224617,-0.959585 0.224617,-1.617185 V 7.466232 5.999434 c 0,-0.6576 -0.05991,-1.17857 -0.224617,-1.617184 C 28.610666,3.943636 28.313811,3.593727 27.937449,3.386155 27.184681,2.971012 26.263848,3.014628 25.00576,2.999434 h -0.002 -18.005861 z"
     style="font-style:normal;font-variant:normal;font-weight:normal;font-stretch:normal;font-size:15px;line-height:125%;font-family:Ubuntu;-inkscape-font-specification:Ubuntu;text-align:center;letter-spacing:0px;word-spacing:0px;writing-mode:lr-tb;text-anchor:middle;display:inline;opacity:0.6;fill:#000000;fill-opacity:1;stroke:none;stroke-width:0.99980205" />
  <path
     inkscape:connector-curvature="0"
     id="path1993"
     d="M 9.983398,4.026634 C 8.426818,4.037974 6.873406,4.015294 5.323455,4.065564 4.862228,4.108274 4.307269,4.271926 4.168118,4.775511 3.949132,5.410849 4.059721,6.109306 4.022304,6.757419 c -0.0079,2.2971229 -0.02305,17.596975 0.02154,19.886348 0.03912,0.461934 0.202545,1.012649 0.698755,1.163641 0.632459,0.22526 1.284148,0.122835 1.935976,0.154205 1.424236,0.0076 4.850563,0.01134 6.27642,0.01134 1.70453,3.4e-4 11.40839,-0.0038 13.107189,-0.0189 0.511911,-0.01134 1.183699,0.0189 1.584745,-0.405165 0.4211,-0.539793 0.287093,-1.268032 0.322734,-1.903786 0.01172,-2.444334 0.02759,-17.911657 -0.02192,-20.357353 C 27.898453,4.885722 27.777738,4.424808 27.372603,4.243278 26.704432,3.94923 25.946398,4.075467 25.246679,4.037671 23.492275,4.026331 11.737806,4.026331 9.983368,4.026331 Z"
     style="opacity:1;vector-effect:none;fill:#fa9381;fill-opacity:1;stroke:none;stroke-width:1;stroke-linecap:round;stroke-linejoin:bevel;stroke-miterlimit:4;stroke-dasharray:none;stroke-dashoffset:0;stroke-opacity:1"
     sodipodi:nodetypes="cccccccscccccccc" />
  <path
     style="opacity:1;fill:#ffffff;fill-opacity:1;fill-rule:evenodd;stroke:none;stroke-width:1.88561809;stroke-linecap:butt;stroke-linejoin:round;stroke-miterlimit:4;stroke-dasharray:none;stroke-opacity:1"
     d="M 7 8 L 7 24 L 9 24 L 17 24 L 17 22 L 9 22 L 9 17 L 15 17 L 15 15 L 9 15 L 9 10 L 17 10 L 17 8 L 9 8 L 7 8 z M 21 12 L 21 15 L 18 15 L 18 17 L 21 17 L 21 20 L 23 20 L 23 17 L 26 17 L 26 15 L 23 15 L 23 12 L 21 12 z "
     id="rect832" />
</svg>

<svg xmlns="http://www.w3.org/2000/svg" viewBox="0 0 32 32"><path d="M6.994 3c-1.258.015-2.179-.03-2.931.384-.377.208-.674.56-.838.998C3.06 4.821 3 5.342 3 6V26.001c0 .657.06 1.178.225 1.617.164.438.461.788.838.996.752.415 1.673.371 2.931.387h18.012c1.258-.016 2.179.03 2.931-.385.377-.208.674-.56.838-.998.165-.439.225-.96.225-1.617V5.999c0-.657-.06-1.178-.225-1.617a1.875 1.875 0 00-.838-.996c-.752-.415-1.673-.371-2.931-.387H6.998z" style="line-height:125%;-inkscape-font-specification:Ubuntu;text-align:center" font-weight="400" font-size="15" font-family="Ubuntu" letter-spacing="0" word-spacing="0" text-anchor="middle" opacity=".6"/><path d="M9.983 4.027c-1.556.011-3.11-.012-4.66.039-.46.042-1.016.206-1.155.71-.219.635-.108 1.333-.146 1.981-.008 2.298-.023 17.597.022 19.887.039.462.202 1.012.699 1.163.632.226 1.284.123 1.936.155 1.424.007 4.85.011 6.276.011 1.705 0 11.408-.004 13.107-.019.512-.011 1.184.019 1.585-.405.421-.54.287-1.268.323-1.904.011-2.444.027-17.912-.022-20.357-.05-.402-.17-.863-.575-1.045-.669-.294-1.427-.168-2.126-.205-1.755-.012-13.51-.012-15.264-.012z" fill="#fa9381"/><path d="M7 8v16h10v-2H9v-5h6v-2H9v-5h8V8H7zm14 4v3h-3v2h3v3h2v-3h3v-2h-3v-3h-2z" fill="#fff" fill-rule="evenodd"/></svg>
